!!!COM: Scarlatti, Domenico
!!!CDT: 1685///-1757///
!!!OTL: Sonata in C Major, K.225, L.351
!!!SCT: K. 225
!!!SCT: L. 351
**kern	**kern	**dynam
*staff2	*staff1	*staff1/2
*Icemba	*Icemba	*Icemba
*>[A,A1,A,A2,B,B1,B,B2]	*>[A,A1,A,A2,B,B1,B,B2]	*>[A,A1,A,A2,B,B1,B,B2]
*>norep[A,A2,B,B2]	*>norep[A,A2,B,B2]	*>norep[A,A2,B,B2]
*>A	*>A	*>A
*clefF4	*clefG2	*clefG2
*k[]	*k[]	*k[]
*C:	*C:	*C:
*M3/4	*M3/4	*M3/4
*MM126	*MM126	*MM126
=1-	=1-	=1-
4C/	(8cc\L	f
.	16ee\L	.
.	16dd\JJ	.
4r	8ee\L	.
.	16gg\L	.
.	16ff\JJ	.
4r	8gg\L	.
.	16ccc\L	.
.	16bb\JJ	.
=2	=2	=2
(8C\L	2ccc\)	.
16E\L	.	.
16D\JJ	.	.
8E\L	.	.
16G\L	.	.
16F\JJ	.	.
8G\L	(4gg\	.
16c\L	.	.
16B\JJ	.	.
=3	=3	=3
4c\)	16aa\LL	.
.	16gg\	.
.	16ff\	.
.	16ee\JJ	.
4r	16dd\LL	.
.	16cc\	.
.	16b\	.
.	16a\JJ	.
16r	16g/)	.
(16f\LL	16r	.
16e\	8r	.
16d\JJ	.	.
=4	=4	=4
16c\LL	4r	.
16A\	.	.
16G\	.	.
16F\JJ	.	.
(4E\ 4c\)	(8gg\L	.
.	16ff\L	.
.	16ee\JJ	.
4F\ 4A\ 4d\	8dd\L	.
.	8cc\J)	.
=5	=5	=5
!	!ccq/	.
4F\) 4B\ 4d\	(8b/L	.
.	16a/L	.
.	16g/JJ)	.
(4E\ 4c\	(8gg\L	p
.	16ff\L	.
.	16ee\JJ	.
4F\ 4A\ 4d\	8dd\L	.
.	8cc\J)	.
=6	=6	=6
!	!ccq/	.
4F\) 4B\ 4d\	(8b/L	.
.	16a/L	.
.	16g/JJ)	.
(4E\ 4c\	(8gg\L	.
.	16ff\L	.
.	16ee\JJ	.
4F\) 4A\ 4d\	8dd\L	.
.	8cc\J	.
=7	=7	=7
2GG/ 2G/	16g\LL	f
.	16ff#\	.
.	16gg\	.
.	16dd\JJ	.
.	16ee\LL	.
.	16cc\	.
.	16dd\	.
.	16b\JJ	.
4r	16cc\LL	.
.	16a\	.
.	16dd\	.
.	16f#\JJ	.
=8	=8	=8
2.r	16g/LL	.
.	16f#/	.
.	16g/	.
.	16d/JJ	.
.	16e/LL	.
.	16c/	.
.	16d/	.
.	16B/JJ	.
.	16c/LL	.
.	16A/	.
.	16d/	.
.	16F#/JJ	.
=9	=9	=9
16r	16G/)	.
(16F#\LL	16r	.
16G\	8r	.
16D\JJ	.	.
16E\LL	4r	.
16C\	.	.
16D\	.	.
16BB\JJ	.	.
16C/LL	4r	.
16AA/	.	.
16D/	.	.
16FF#/JJ	.	.
=10	=10	=10
4GG/)	8r	.
.	8dd'\L	p
(4G'\	8dd'\	.
.	8dd'\J	<
4G'\)	(8.dd\L	.
.	32cc#\LL	.
.	32dd\JJJ	.
=11	=11	=11
4F#'\ 4cn'\ (4d'\	8aa'\L)	.
.	(8ff#\J	.
!	!eeq/	.
4F#'\ 4c'\ 4d'\	4.dd\	.
4F#'\ 4c'\ 4d'\)	.	.
.	8cc\	.
=12	=12	=12
4G'\ (4d'\	8b\L)	.
.	8dd'\	.
4G'\ 4d'\	8dd'\	.
.	8dd'\J	.
4G'\ 4d'\)	(8.dd\L	<
.	32cc#\LL	.
.	32dd\JJJ	.
=13	=13	=13
4F#'\ 4cn'\ (4d'\	8aa'\L)	.
.	(8ff#\J	>
!	!eeq/	.
4F#'\ 4c'\ 4d'\	4.dd\	.
4F#'\ 4c'\ 4d'\)	.	.
.	8cc\	.
=14	=14	=14
4G'\ (4d'\	8b\L)	.
.	8dd'\	<
4G'\ 4d'\	8dd'\	.
.	(8dd\J	.
4G'\ 4d'\)	8ff\L	.
.	8ee-\J)	.
=15	=15	=15
!	!(ffq/	.
4A-'\ (4f'\	(8ee-\L)	.
.	16dd\L	.
.	16cc\JJ	.
4A-'\ 4f'\)	8ee-\L)	.
.	(8ee-\	.
(4An\ 4f\	8gg\	.
.	8ff\J)	.
=16	=16	=16
!	!ggq/	.
4B-'\) 4f'\	(8ff\L	.
.	16ee-\L	.
.	16dd\JJ	.
4B-'\ 4f'\	8ff\L)	.
.	(8ff\	.
(4B-\ 4g\	8aa-\	.
.	8gg\J)	.
=17	=17	=17
!	!aa-q/	.
4c'\) 4g'\	(8gg\L	.
.	16ff\L	.
.	16ee-\JJ	.
4c'\ 4g'\	8gg\L)	.
.	(16aan\L	.
.	16bb-\JJ	.
(4c#\ 4g\	8aa\L	.
.	8gg\J)	.
=18	=18	=18
2d\)	(16ff#\LL	f
.	16gg\	.
.	16aa\	.
.	16dd\JJ	.
.	16ee-\LL	.
.	16ffn\	.
.	16gg\	.
.	16a\JJ	.
4r	16b-\LL	.
.	16cc\	.
.	16dd\	.
.	16g\JJ	.
=19	=19	=19
16r	16f#/)	.
(16d\LL	16r	.
16e-\	8r	.
16c#\JJ	.	.
16d\LL	4r	.
16A\	.	.
16B-\	.	.
16F#\JJ	.	.
16G\LL	4r	.
16D\	.	.
16E-\	.	.
16C#\JJ	.	.
=20	=20	=20
16D/LL	2.r	.
16AA/	.	.
16BB-/	.	.
16FF#/JJ	.	.
8GG'/L)	.	.
8FFn'/J	.	.
!(EE-q/	!	!
(4EE-/)	.	.
=21	=21	=21
*^	*	*
4DD/)	4r	8r	.
.	.	8dd'\L	p
(4D/	2D\	8dd'\	.
.	.	8dd'\	.
4d/)	.	(8dd'\	.
.	.	8dd\J	.
=22	=22	=22	=22
!	!	!ee-q/	.
*	*	*^	*
(4d/	2D\	2ee-/	2.ee-\	mf
8c/L	.	.	.	.
8B-/J	.	.	.	.
!	!	!ddq/LLL	.	.
!	!	!ee-q/JJJ	.	.
4c/)	4D\	8ccc/L	.	.
.	.	16bb-/L	.	.
.	.	16aa/JJ	.	>
*	*	*v	*v	*
=23	=23	=23	=23
!	!	!ggq/	.
*	*	*^	*
(4c/	2D\	2ff#/	2ee-\	.
8B-/L	.	.	.	.
8A/J	.	.	.	.
4B-/)	4D\	4r	4dd\ [4gg\	.
*v	*v	*	*	*
*	*v	*v	*
=24	=24	=24
4C#\ (4B-\	8gg\L]	<
.	16aa\L	.
.	16bb-\JJ	.
!	!cccq/	.
4C#'\ 4B-'\	4.bb-\	.
4C#'\ 4B-'\)	.	.
.	16aa\LL	.
.	16gg\JJ)	.
=25	=25	=25
!	!(ggq/	.
4D\	(8ff#\L)	.
.	16een\L	.
.	16dd\JJ)	.
(16d\LL	4dd\ 4ddd\	f
16cn\	.	.
16B-\	.	.
16A\JJ	.	.
16G\LL	4dd\ 4ddd\	.
16F\	.	.
16E-\	.	.
16D\JJ	.	.
=26	=26	=26
*	*^	*
4C/)	(8ddd/L	4ee-\	.
.	8ccc/J)	.	.
4C\ 4c\	(16ccc/LL	4ee-\	.
.	16bb-/	.	.
.	(16bb-/)	.	.
.	16aa/JJ	.	.
(4C\ 4c\	16aa/LL)	4cc\	.
.	16gg/	.	.
.	16ff#/	.	.
.	16gg/JJ	.	.
*	*v	*v	*
=27	=27	=27
!	!(ggq/	.
*	*^	*
4D\) 4c\	4ff#/)	4cc\	.
4D\ 4c\	(4ff#/	16ee-\LL	.
.	.	16dd\)	.
.	.	(16dd\	.
.	.	(16cc\JJ)	.
4E-\	4gg/	16cc\LL	.
.	.	16b-\	.
.	.	16a\	.
.	.	16g\JJ)	.
*	*v	*v	*
=28	=28	=28
4C\ 4G\ 4c\	(16g/LL	.
.	16a/	.
.	16b-/	.
.	16cc/JJ)	.
!	!ccq/	.
4D\ 4G\ (4B-\	(8b-/L	.
.	16a/L	.
.	16g/JJ	.
!	!b-q/	.
4D\ 4A\	8a/L	.
.	16g/L	.
.	16f#/JJ	.
=29	=29	=29
*^	*	*
4G\)	4r	8g\L)	.
.	.	8dd'\	p
2D\	(4D/	8dd'\	.
.	.	8dd'\	.
.	4d/)	8dd'\	.
.	.	8dd\J	.
=30	=30	=30	=30
!	!	!eeq/	.
*	*	*^	*
(4d/	2D\	(2ee/	2.ee\	mf
8c/L	.	.	.	.
8B-/J	.	.	.	.
!	!	!ddq/LLL	.	.
!	!	!eeq/JJJ	.	.
4c/)	4D\	8ccc/L	.	.
.	.	16bb-/L	.	.
.	.	16aa/JJ	.	>
*	*	*v	*v	*
=31	=31	=31	=31
!	!	!ggq/	.
*	*	*^	*
(4c/	2D\	2ff#/)	2ee-\	.
8B-/L	.	.	.	.
8A/J	.	.	.	.
4B-/	4D\)	4r	4dd\ [4gg\	.
*v	*v	*	*	*
*	*v	*v	*
=32	=32	=32
4C#'\ (4B-'\	8gg\L]	<
.	16aa\L	.
.	16bb-\JJ	.
4C#'\ 4B-'\	4.bb-\	.
4C#'\ 4B-'\)	.	.
.	16aa\LL	.
.	(16gg\JJ	.
=33	=33	=33
!	!ggq/	.
4D\	(8ff#\L)	.
.	16een\L	.
.	16dd\JJ)	.
(16d\LL	4dd\ 4ddd\	f
16cn\	.	.
16B-\	.	.
16A\JJ	.	.
16G\LL	4dd\ 4ddd\	.
16F\	.	.
16E-\	.	.
16D\JJ	.	.
=34	=34	=34
*	*^	*
4C/)	8ddd/L	4ee-\	.
.	8ccc/J	.	.
4C\ 4c\	(16ccc/LL	4ee-\	.
.	16bb-/	.	.
.	(16bb-/)	.	.
.	16aa/JJ	.	.
4C\ 4c\	(16aa/LL)	4cc\	.
.	16gg/	.	.
.	16ff#/	.	.
.	16gg/JJ)	.	.
*	*v	*v	*
=35	=35	=35
!	!(ggq/	.
*	*^	*
4D\ 4c\	4ff#/)	4cc\	.
(4D\ 4c\	(4ff-/	16ee\LL	.
.	.	16dd\)	.
.	.	(16dd\	.
.	.	(16cc\JJ)	.
4E-\	4gg/	16cc\LL	.
.	.	16b-\	.
.	.	16a\	.
.	.	16g\JJ)	.
*	*v	*v	*
=36	=36	=36
4C\) 4G\ 4c\	(16g/LL	.
.	16a/	.
.	16b-/	.
.	16cc/JJ)	.
!	!(ccq/	.
4D\ 4G\ (4B-\	8b-/L	.
.	16a/L	.
.	16g/JJ	.
!	!b-q/	.
4D\ 4A\)	8a/L	.
.	16g/L	.
.	16f#/JJ	.
=37	=37	=37
(4GG/	16g\LL)	.
.	(16gg\	.
.	16bn\	.
.	16cc\JJ	.
4D\	16dd\LL	.
.	16b\	.
.	16cc\	.
.	16a\JJ	.
4DD/	16b/LL	.
.	16g/	.
.	16dd/	.
.	16f#/JJ	.
=38	=38	=38
4GG/	16g/LL)	.
.	(16g/	.
.	16B/	.
.	16c/JJ	.
4D\	16d/LL	.
.	16B/	.
.	16c/	.
.	16A/JJ	.
4DD/)	16B/LL	.
.	16G/	.
.	16d/	.
.	16F#/JJ	.
=39	=39	=39
16r	16G/)	.
(16G\LL	16r	.
16BB\	8r	.
16C\JJ	.	.
16D/LL	4r	.
16BB/	.	.
16C/	.	.
16AA/JJ	.	.
16BB/LL	4r	.
16GG/	.	.
16D/	.	.
16FF#/JJ)	.	.
=40	=40	=40
*^	*	*
2.G/	(4GG\	8r	.
.	.	(8gg\L	f
.	4BB\	8dd\)	.
.	.	8dd'\J	.
!	!	!(eeq/	.
.	4GG\)	(8dd\L)	p
.	.	16cc\L	.
.	.	16b\JJ	.
=41	=41	=41	=41
2c/	(4C\	8a\L)	<
.	.	(8aa\	.
.	2D\)	8ff#\	.
.	.	8cc\J)	.
4d/	.	(8.cc\L	.
.	.	32b\LL	.
.	.	32cc\JJJ	.
=42	=42	=42	=42
2.d/	(4G\	8b\L)	.
.	.	(8bb\	.
.	4B\	8gg\	.
.	.	8dd\J)	.
.	4G\	(8.dd\L	.
.	.	32cc\LL	.
.	.	32b\JJJ	.
*v	*v	*	*
=43	=43	=43
4C/	8a/L)	.
.	([8e/J	f
4D/	16e/LL]	.
.	16f#/	.
.	16g/	.
.	16a/JJ	.
4DD/)	8.a/L	.
.	32g/LL	.
.	32a/JJJ	.
=44	=44	=44
*^	*	*
2.G/	(4GG\	8g\L)	.
.	.	(8gg\	>
.	4BB\	8dd\)	.
.	.	8dd'\J	.
!	!	!eeq/	.
.	4GG\)	(8dd\L	p
.	.	16cc\L	.
.	.	16b\JJ	.
=45	=45	=45	=45
(2c/	4C\	8a\L)	<
.	.	(8aa\	.
.	2D\	8ff#\	.
.	.	8cc\J)	.
4d/)	.	(8.cc\L	.
.	.	32b\LL	.
.	.	32cc\JJJ	.
=46	=46	=46	=46
2.d/	(4G\	8b\L)	.
.	.	(8bb\	.
.	4B\	8gg\	.
.	.	8dd\J)	.
.	4G\	(8.dd\L	.
.	.	32cc\LL	.
.	.	32b\JJJ	.
*v	*v	*	*
=47	=47	=47
4C/	8a/L)	.
.	([8e/J	f
4D\	16e/LL]	.
.	16f#/	.
.	16g/	.
.	16a/JJ	.
4DD/	8.a/L	.
.	32g/LL	.
.	32a/JJJ	.
=48	=48	=48
*>A1	*>A1	*>A1
8.GG\L)	4g/)	.
(16A\Jk	.	.
8G\L	4r	.
8Fn\	.	.
8E\	4r	.
8D\J)	.	.
=49:|!	=49:|!	=49:|!
*>A2	*>A2	*>A2
4GG/	(8g\L	f
.	16b\L	.
.	16a\JJ	.
4r	8b\L	.
.	16dd\L	.
.	16cc\JJ	.
4r	8dd\L	.
.	16gg\L	.
.	16ff#\JJ	.
=50!|:	=50!|:	=50!|:
*>B	*>B	*>B
(8GG/L	2gg\	.
16BB/L	.	.
16AA/JJ	.	.
8BB/L	.	.
16D/L	.	.
16C/JJ	.	.
8D\L	[4ffn\	.
16Fn\L	.	.
16E\JJ	.	.
=51	=51	=51
8F\L	2ff\]	.
16A\L	.	.
16G#\JJ	.	.
8A\L	.	.
16c\L	.	.
16B\JJ	.	.
8c\L	[4ee\)	.
16e\L	.	.
16d\JJ	.	.
=52	=52	=52
8e\L	2ee\]	.
*clefG2	*	*
16a\L	.	.
16g#\JJ	.	.
8a\L	.	.
16cc\L	.	.
16b\JJ	.	.
4cc\)	(16aa\LL	.
.	16gg\	.
.	16ff\	.
.	16ee\JJ	.
=53	=53	=53
(4d/	16ff\LL	.
.	16gg\	.
.	16ff\	.
.	16ee\JJ	.
4e/	16ff\LL	.
.	16ee\	.
.	16dd\	.
.	16cc\JJ	.
4f/	16dd\LL	.
.	16cc\	.
.	16b\	.
.	16a\JJ	.
=54	=54	=54
4e/)	16g#\LL)	.
.	(16dd#\	.
.	16ee\	.
.	16b\JJ	.
4r	16cc/LL	.
.	16g#/	.
.	16a/	.
.	16d#/JJ	.
4r	16e/LL	.
.	16B/	.
.	16c/	.
.	16G#/JJ	.
*clefF4	*	*
=55	=55	=55
16r	16A/)	.
(16D#/LL	16r	.
16E/	8r	.
16BB/JJ	.	.
16C/LL	4r	.
16GG#/	.	.
16AA/	.	.
16DD#/JJ	.	.
4EE/)	8r	.
.	(8b\	mf
=56	=56	=56
4D'\ 4G#'\ (4B'\	8b'\L)	.
.	([8ff\J	.
4D'\ 4G#'\ 4B'\	8ff\L]	.
.	16ee\L	.
.	16dd\JJ	.
4D'\ 4G#'\ 4B'\)	16cc/LL	.
.	16b/	.
.	16a/	.
.	16g#/JJ	.
=57	=57	=57
4C'\ 4E'\ (4A'\	8a'/L)	.
.	([8a/J	.
4C'\ 4E'\ 4A'\	16a/LL]	.
.	16b/	.
.	16cc/	.
.	16dd/JJ)	.
!	!(ddq/	.
4C'\ 4E'\ 4A'\)	(8cc\L)	.
.	16b\L	.
.	16a\JJ)	.
=58	=58	=58
4D'\ 4A'\ (4B'\	8a'\L	p
.	([8aa\J	.
4D'\ 4A'\ 4B'\	16aa\LL]	.
.	16b\	.
.	16cc\	.
.	16dd\JJ)	.
!	!(ddq/	.
4D'\ 4A'\ 4B'\)	(8cc\L)	.
.	16b\L	.
.	16a\JJ)	.
=59	=59	=59
4E'\ 4A'\ (4c'\	8a'\L	<
.	([8aa\J	.
4E'\ 4A'\ 4c'\	16aa\LL]	.
.	16b\	.
.	16cc\	.
.	16dd\JJ)	.
!	!(ddq/	.
4E'\ 4A'\ 4c'\)	(8cc\L)	.
.	16b\L	.
.	16a\JJ)	.
=60	=60	=60
4F'\ 4c'\ (4d'\	8a'\L	.
.	([8aa\J	.
4F'\ 4c'\ 4d'\	16aa\LL]	.
.	16b\	.
.	16cc\	.
.	16dd\JJ	.
!	!ccq/	.
4F'\ 4c'\ 4d'\)	8.cc\L	.
.	32b\LL	.
.	32cc\JJJ	.
=61	=61	=61
4G'\ (4d'\	8b'\L)	.
.	([8bb\J	.
4G'\ 4d'\	16bb\LL]	.
.	16cc\	.
.	16dd\	.
.	16ee\JJ	.
!	!ddq/	.
4G'\ 4d'\)	8.dd\L	.
.	32cc\LL	.
.	32dd\JJJ	.
=62	=62	=62
4A\ 4c\ [4f#\	8cc'\L)	f
.	([8ccc\J	.
4A'\ 4c'\ 4f#'\]	16ccc\LL]	.
.	16cc\	.
.	16dd\	.
.	16ee\JJ	.
(4A\ 4c\ 4f#\	8dd\L	.
.	8cc\J	.
=63	=63	=63
4B\)	8dd'\L)	.
.	([8gg^\J	.
(4c'\	8gg\L]	p
.	16ffn\L	.
.	16ee\JJ	.
4F'\ 4c'\)	8dd\L	.
.	8cc\J)	.
=64	=64	=64
!	!ccq/	.
4F\ (4B\	(8b/L	<
.	16a/L	.
.	16g/JJ)	.
4E\ 4c\)	(8gg\L	.
.	16ff\L	.
.	16ee\JJ	.
4F\ 4c\	8dd\L	.
.	8cc\J)	.
=65	=65	=65
!	!ccq/	.
4F\ (4B\	(8b/L	.
.	16a/L	.
.	16g/JJ)	.
4E\ 4c\)	(8gg\L	.
.	16ff\L	.
.	16ee\JJ	.
4F\ 4c\	8dd\L	.
.	8cc\J	.
=66	=66	=66
4G\	16b\LL)	f
.	(16ff#\	.
.	16gg\	.
.	16dd\JJ	.
4r	16ee\LL	.
.	16cc\	.
.	16dd\	.
.	16b\JJ	.
4r	16cc\LL	.
.	16a\	.
.	16dd\	.
.	16f#\JJ	.
=67	=67	=67
2.r	16g/LL	.
.	16f#/	.
.	16g/	.
.	16d/JJ	.
.	16e/LL	.
.	16c/	.
.	16d/	.
.	16B/JJ	.
.	16c/LL	.
.	16A/	.
.	16d/	.
.	16F#/JJ	.
=68	=68	=68
16r	16G/)	.
(16F#\LL	16r	.
16G\	8r	.
16D\JJ	.	.
16E\LL	4r	.
16C\	.	.
16D\	.	.
16BB\JJ	.	.
16C/LL	4r	.
16AA/	.	.
16D/	.	.
16FF#/JJ	.	.
=69	=69	=69
*^	*	*
4GG/)	4r	8r	.
.	.	8gg'\L	p
(4G/	2G\	8gg'\	.
.	.	8gg'\	.
4g/)	.	8gg'\	.
.	.	(8gg\J	.
=70	=70	=70	=70
!	!	!aa-q/	.
*	*	*^	*
(4g/	2G\	2aa-/	2.aa-\	mf
8f/L	.	.	.	.
8e-/J	.	.	.	.
!	!	!ggq/LLL	.	.
!	!	!aa-q/JJJ	.	.
4f/)	4G\	8ddd/L	.	.
.	.	8ccc/J	.	>
=71	=71	=71	=71	=71
(4f/	2G\	2bbn/	2aa-\	.
8e-/L	.	.	.	.
8d/J	.	.	.	.
4e-/)	4G\	4r	4gg\ [4ccc\	.
*v	*v	*	*	*
*	*v	*v	*
=72	=72	=72
4F#'\ (4e-'\	16ccc\LL]	<
.	16cc\	.
.	16dd\	.
.	16ee-\JJ	.
!	!ffq/	.
4F#'\ 4e-'\	4.ee-\	.
4F#'\ 4e-'\)	.	.
.	16dd\LL	.
.	16cc\JJ)	.
=73	=73	=73
!	!(ccq/	.
4G\	(8b/L)	.
.	16a/L	.
.	16g/JJ	.
(16g\LL	4gg\)	f
16f\	.	.
16e-\	.	.
16d\JJ	.	.
16c\LL	4gg\	.
16B-\	.	.
16A-\	.	.
16G\JJ	.	.
=74	=74	=74
*	*^	*
4F\)	([2.aa-^/	8gg\L	.
.	.	8ff\J)	.
4F\ 4f\	.	(16ff\LL	.
.	.	16ee-\)	.
.	.	(16ee-\	.
.	.	16dd\JJ)	.
(4F\ 4f\	.	(16dd\LL	.
.	.	16cc\	.
.	.	16b\	.
.	.	16cc\JJ)	.
*	*v	*v	*
=75	=75	=75
!	!ccq/	.
*	*^	*
4G\) 4f\	4aa-/]	[4b\	.
4G\ 4f\	4r	16b\LL]	.
.	.	(16bb\	.
.	.	16aan\	.
.	.	16bb\JJ	.
(4c\	4r	16ccc\LL	.
.	.	16gg\	.
.	.	16ff\	.
.	.	16gg\JJ	.
*	*v	*v	*
=76	=76	=76
!	!bb-q/	.
4F\	8aa-\L	.
.	16gg\L	.
.	16ff\JJ	.
!	!(ffq/)	.
4G\	8ee-\L	.
.	16dd\L	.
.	16cc\JJ	.
!	!ee-q/	.
4GG/	8dd\L	.
.	16cc\L	.
.	16bn\JJ	.
=77	=77	=77
*^	*	*
4C/)	4r	8cc\L)	.
.	.	8gg'\	p
(4G/	2G\	8gg'\	<
.	.	8gg'\	.
4g/)	.	8gg'\	.
.	.	(8gg\J	.
=78	=78	=78	=78
!	!	!aa-q/	.
*	*	*^	*
(4g/	2G\	2aa-/	2.aa-\	mf
8f/L	.	.	.	.
8e-/J	.	.	.	.
!	!	!ggq/LLL	.	.
!	!	!aa-q/JJJ	.	.
4f/)	4G\	8ddd/L	.	.
.	.	8ccc/J	.	.
=79	=79	=79	=79	=79
(4f/	2G\	2bbn/	2aa-\	.
8e-/L	.	.	.	.
8d/J	.	.	.	.
4e-/)	4G\	4r	4gg\ [4ccc\	.
*v	*v	*	*	*
*	*v	*v	*
=80	=80	=80
4F#'\ (4e-'\	16ccc\LL]	<
.	16cc\	.
.	16dd\	.
.	16ee-\JJ	.
!	!ffnq/	.
4F#'\ 4e-'\	4.ee-\	.
4F#'\ 4e-'\)	.	.
.	16dd\LL	.
.	16cc\JJ)	.
=81	=81	=81
!	!ccq/	.
4G\	(8b/L	.
.	16a/L	.
.	16g/JJ	.
(16g\LL	4gg\)	f
16f\	.	.
16e-\	.	.
16d\JJ	.	.
16c\LL	4gg\	.
16B-\	.	.
16A-\	.	.
16G\JJ	.	.
=82	=82	=82
*	*^	*
4F\)	([2.aa-/	8gg\L	.
.	.	8ff\J)	.
4F\ 4f\	.	(16ff\LL	.
.	.	16ee-\)	.
.	.	(16ee-\	.
.	.	16dd\JJ)	.
(4F\ 4f\	.	(16dd\LL	.
.	.	16cc\	.
.	.	16b\	.
.	.	16cc\JJ)	.
*	*v	*v	*
=83	=83	=83
!	!(ccq/	.
*	*^	*
4G\) 4f\	4aa-/]	[4b\)	.
4G\ 4f\	2r	16b\LL]	.
.	.	(16bb\	.
.	.	16aan\	.
.	.	16bb\JJ	.
(4c\	.	16ccc\LL	.
.	.	16gg\	.
.	.	16ff\	.
.	.	16gg\JJ	.
*	*v	*v	*
=84	=84	=84
!	!bbq/	.
4F\	8aa-\L	.
.	16gg\L	.
.	16ff\JJ)	.
!	!(ffq/	.
4G\	(8ee-\L)	.
.	16dd\L	.
.	16cc\JJ	.
!	!ee-q/	.
4GG/	8dd\L	.
.	16cc\L	.
.	16bn\JJ	.
=85	=85	=85
*	*^	*
4C/	4r	16cc\LL)	f
.	.	(16ccc\	.
.	.	16een\	.
.	.	16ff\JJ	.
4G\	4r	16gg\LL	.
.	.	16ee\	.
.	.	16ff\	.
.	.	16dd\JJ	.
4GG/	4gg/	16ee\LL	.
.	.	16cc\	.
.	.	16dd\	.
.	.	16b\JJ	.
=86	=86	=86	=86
4C/	4r	16cc\LL	.
.	.	(16ee\)	.
.	.	16e\	.
.	.	16f\JJ	.
4G\	4r	16g/LL	.
.	.	16e/	.
.	.	16f/	.
.	.	16d/JJ	.
4GG/)	4g/	16e\LL	.
.	.	16c\	.
.	.	16d\	.
.	.	16B\JJ	.
*	*v	*v	*
=87	=87	=87
16r	16c/)	.
(16c\LL	16r	.
16E\	8r	.
16F\JJ	.	.
16G\LL	4r	.
16E\	.	.
16F\	.	.
16D\JJ	.	.
16E\LL	4r	.
16C\	.	.
16G\	.	.
16BB\JJ	.	.
=88	=88	=88
16C/LL	4r	.
16GG/	.	.
16AA/	.	.
16BB/JJ	.	.
16C/LL	4r	.
16EE/	.	.
16FF/	.	.
16GG/JJ	.	.
(4CC/)	(16ccc\LL	.
.	16gg\	.
.	16ee\	.
.	16cc\JJ	.
=89	=89	=89
4FF/)	16aa\LL	.
.	16ff\	.
.	16cc\	.
.	16a\JJ)	.
(4FF/	(16a\LL	.
.	16b\	.
.	16cc\	.
.	16dd\JJ	.
4GG/	8.dd\L	.
.	32cc\LL	.
.	32dd\JJJ)	.
=90	=90	=90
4C/)	(16ccc\LL	.
.	16gg\	.
.	16ee\	.
.	16cc\JJ	.
(4FF/ 4F/	16aa\LL	.
.	(16ff\)	.
.	32a\L	.
.	32b\	.
.	32cc\	.
.	32dd\JJJ	.
4GG/ 4G/	8.dd\L	.
.	32cc\LL	.
.	32dd\JJJ)	.
=91	=91	=91
4C/)	(16ccc\LL	.
.	16gg\	.
.	16ee\	.
.	16cc\JJ	.
(4FF/	16aa\LL	.
.	16ff\	.
.	32a\L)	.
.	32b\	.
.	32cc\	.
.	32dd\JJJ	.
4GG/	8.d/L	.
.	32c/LL	.
.	32d/JJJ	.
=92	=92	=92
*>B1	*>B1	*>B1
4CC/) 4C/	4c/	.
4r	4r	.
4r	4r	.
=93	=93	=93
2.r	(8g/L	f
.	16b/L	.
.	16a/JJ	.
.	8b\L	.
.	16dd\L	.
.	16cc\JJ	.
.	8dd\L	.
.	16gg\L	.
.	16ff#\JJ)	.
=94:|!	=94:|!	=94:|!
*>B2	*>B2	*>B2
4CC/ 4C/	4c/	.
4r	4r	.
4r	4r	.
==:|!	==:|!	==:|!
*-	*-	*-
!!!ENC: Craig Stuart Sapp
!!!END: 2004/08/09/
